example/public/lut.3dl
#Created by: Adobe Photoshop Export Color Lookup Plugin
#Description: lut.psd
0 33 66 99 132 165 198 231 264 297 330 363 396 429 462 495 528 561 594 627 660 693 726 759 792 825 858 891 924 957 990 1023
0 0 0
0 0 74
0 0 231
0 0 366
0 0 486
0 0 589
0 0 680
0 0 766
0 0 855
0 0 957
0 0 1084
0 0 1252
0 0 1456
0 0 1676
0 0 1889
0 0 2076
0 0 2241
0 0 2389
0 0 2532
0 0 2672
0 0 2813
0 0 2957
0 0 3106
0 0 3265
0 0 3435
0 0 3621
0 0 3827
0 0 4055
0 0 4095
0 0 4095
0 0 4095
0 0 4095
0 78 0
0 78 78
0 78 233
0 78 367
0 78 487
0 78 590
0 78 681
0 78 767
0 78 856
0 78 957
0 78 1085
0 78 1253
0 78 1457
0 78 1677
0 78 1889
0 78 2076
0 78 2241
0 78 2390
0 78 2532
0 78 2672
0 78 2813
0 78 2957
0 78 3107
0 78 3265
0 78 3435
0 78 3621
0 78 3827
0 78 4055
0 78 4095
0 78 4095
0 78 4095
0 78 4095
0 235 0
0 235 84
0 235 235
0 235 369
0 235 488
0 235 591
0 235 681
0 235 767
0 235 856
0 235 958
0 235 1085
0 235 1253
0 235 1457
0 235 1678
0 235 1890
0 235 2077
0 235 2241
0 235 2390
0 235 2533
0 235 2672
0 235 2813
0 235 2957
0 235 3107
0 235 3265
0 235 3435
0 235 3621
0 235 3827
0 235 4055
0 235 4095
0 235 4095
0 235 4095
0 235 4095
0 371 0
0 371 93
0 371 239
0 371 371
0 371 489
0 371 592
0 371 682
0 371 768
0 371 857
0 371 959
0 371 1086
0 371 1254
0 371 1458
0 371 1678
0 371 1890
0 371 2077
0 371 2242
0 371 2390
0 371 2533
0 371 2673
0 371 2813
0 371 2958
0 371 3107
0 371 3265
0 371 3436
0 371 3622
0 371 3827
0 371 4056
0 371 4095
0 371 4095
0 371 4095
0 371 4095
0 492 0
0 492 105
0 492 243
0 492 374
0 492 492
0 492 593
0 492 683
0 492 769
0 492 858
0 492 960
0 492 1087
0 492 1255
0 492 1460
0 492 1679
0 492 1891
0 492 2078
0 492 2242
0 492 2391
0 492 2533
0 492 2673
0 492 2814
0 492 2958
0 492 3108
0 492 3266
0 492 3436
0 492 3622
0 492 3828
0 492 4056
0 492 4095
0 492 4095
0 492 4095
0 492 4095
1 595 1
1 595 122
1 595 249
1 595 378
1 595 494
1 595 595
1 595 685
1 595 770
1 595 859
1 595 961
1 595 1088
1 595 1257
1 595 1461
1 595 1681
1 595 1892
1 595 2079
1 595 2243
1 595 2392
1 595 2534
1 595 2674
1 595 2814
1 595 2958
1 595 3108
1 595 3266
1 595 3437
1 595 3623
1 595 3828
1 595 4057
1 595 4095
1 595 4095
1 595 4095
1 595 4095
2 687 2
2 687 132
2 687 257
2 687 383
2 687 498
2 687 597
2 687 687
2 687 771
2 687 860
2 687 962
2 687 1090
2 687 1259
2 687 1463
2 687 1683
2 687 1894
2 687 2080
2 687 2244
2 687 2392
2 687 2535
2 687 2674
2 687 2815
2 687 2959
2 687 3109
2 687 3267
2 687 3437
2 687 3624
2 687 3829
2 687 4058
2 687 4095
2 687 4095
2 687 4095
2 687 4095
5 773 5
5 773 143
5 773 265
5 773 389
5 773 501
5 773 600
5 773 689
5 773 773
5 773 862
5 773 964
5 773 1092
5 773 1261
5 773 1465
5 773 1685
5 773 1896
5 773 2081
5 773 2245
5 773 2393
5 773 2536
5 773 2675
5 773 2816
5 773 2960
5 773 3109
5 773 3268
5 773 3438
5 773 3624
5 773 3830
5 773 4059
5 773 4095
5 773 4095
5 773 4095
5 773 4095
10 864 10
10 864 157
10 864 275
10 864 396
10 864 506
10 864 603
10 864 691
10 864 775
10 864 864
10 864 966
10 864 1094
10 864 1264
10 864 1468
10 864 1687
10 864 1898
10 864 2084
10 864 2247
10 864 2394
10 864 2537
10 864 2676
10 864 2817
10 864 2961
10 864 3111
10 864 3269
10 864 3439
10 864 3625
10 864 3831
10 864 4060
10 864 4095
10 864 4095
10 864 4095
10 864 4095
18 968 18
18 968 173
18 968 286
18 968 403
18 968 511
18 968 607
18 968 694
18 968 778
18 968 866
18 968 968
18 968 1097
18 968 1267
18 968 1471
18 968 1690
18 968 1900
18 968 2085
18 968 2248
18 968 2396
18 968 2538
18 968 2677
18 968 2818
18 968 2962
18 968 3111
18 968 3270
18 968 3440
18 968 3626
18 968 3832
18 968 4061
18 968 4095
18 968 4095
18 968 4095
18 968 4095
33 1100 33
33 1100 188
33 1100 298
33 1100 412
33 1100 516
33 1100 611
33 1100 697
33 1100 780
33 1100 868
33 1100 971
33 1100 1100
33 1100 1270
33 1100 1475
33 1100 1693
33 1100 1903
33 1100 2087
33 1100 2250
33 1100 2397
33 1100 2539
33 1100 2679
33 1100 2819
33 1100 2963
33 1100 3113
33 1100 3271
33 1100 3441
33 1100 3627
33 1100 3833
33 1100 4062
33 1100 4095
33 1100 4095
33 1100 4095
33 1100 4095
57 1274 57
57 1274 206
57 1274 311
57 1274 421
57 1274 523
57 1274 615
57 1274 700
57 1274 783
57 1274 871
57 1274 974
57 1274 1103
57 1274 1274
57 1274 1479
57 1274 1697
57 1274 1906
57 1274 2090
57 1274 2252
57 1274 2399
57 1274 2541
57 1274 2680
57 1274 2820
57 1274 2964
57 1274 3114
57 1274 3272
57 1274 3443
57 1274 3629
57 1274 3835
57 1274 4064
57 1274 4095
57 1274 4095
57 1274 4095
57 1274 4095
95 1484 95
95 1484 225
95 1484 325
95 1484 431
95 1484 530
95 1484 620
95 1484 704
95 1484 786
95 1484 874
95 1484 977
95 1484 1107
95 1484 1279
95 1484 1484
95 1484 1701
95 1484 1909
95 1484 2092
95 1484 2254
95 1484 2401
95 1484 2543
95 1484 2682
95 1484 2822
95 1484 2966
95 1484 3115
95 1484 3274
95 1484 3444
95 1484 3631
95 1484 3837
95 1484 4066
95 1484 4095
95 1484 4095
95 1484 4095
95 1484 4095
134 1706 134
134 1706 245
134 1706 340
134 1706 441
134 1706 537
134 1706 626
134 1706 708
134 1706 790
134 1706 878
134 1706 981
134 1706 1112
134 1706 1284
134 1706 1489
134 1706 1706
134 1706 1913
134 1706 2096
134 1706 2256
134 1706 2403
134 1706 2545
134 1706 2684
134 1706 2824
134 1706 2968
134 1706 3117
134 1706 3275
134 1706 3446
134 1706 3632
134 1706 3839
134 1706 4068
134 1706 4095
134 1706 4095
134 1706 4095
134 1706 4095
161 1917 161
161 1917 265
161 1917 356
161 1917 452
161 1917 545
161 1917 631
161 1917 713
161 1917 794
161 1917 882
161 1917 985
161 1917 1117
161 1917 1289
161 1917 1494
161 1917 1710
161 1917 1917
161 1917 2099
161 1917 2259
161 1917 2406
161 1917 2547
161 1917 2685
161 1917 2826
161 1917 2969
161 1917 3119
161 1917 3277
161 1917 3448
161 1917 3634
161 1917 3841
161 1917 4070
161 1917 4095
161 1917 4095
161 1917 4095
161 1917 4095
189 2102 189
189 2102 286
189 2102 371
189 2102 464
189 2102 554
189 2102 638
189 2102 718
189 2102 798
189 2102 886
189 2102 990
189 2102 1122
189 2102 1295
189 2102 1500
189 2102 1716
189 2102 1922
189 2102 2102
189 2102 2262
189 2102 2408
189 2102 2549
189 2102 2688
189 2102 2828
189 2102 2971
189 2102 3121
189 2102 3279
189 2102 3450
189 2102 3637
189 2102 3843
189 2102 4072
189 2102 4095
189 2102 4095
189 2102 4095
189 2102 4095
218 2265 218
218 2265 308
218 2265 388
218 2265 476
218 2265 562
218 2265 645
218 2265 723
218 2265 803
218 2265 890
218 2265 995
218 2265 1127
218 2265 1301
218 2265 1506
218 2265 1722
218 2265 1926
218 2265 2106
218 2265 2265
218 2265 2411
218 2265 2552
218 2265 2690
218 2265 2830
218 2265 2973
218 2265 3123
218 2265 3282
218 2265 3452
218 2265 3639
218 2265 3845
218 2265 4075
218 2265 4095
218 2265 4095
218 2265 4095
218 2265 4095
246 2414 246
246 2414 330
246 2414 405
246 2414 489
246 2414 572
246 2414 652
246 2414 729
246 2414 808
246 2414 895
246 2414 1000
246 2414 1134
246 2414 1308
246 2414 1513
246 2414 1728
246 2414 1932
246 2414 2110
246 2414 2269
246 2414 2414
246 2414 2554
246 2414 2693
246 2414 2832
246 2414 2976
246 2414 3126
246 2414 3284
246 2414 3454
246 2414 3641
246 2414 3848
246 2414 4078
246 2414 4095
246 2414 4095
246 2414 4095
246 2414 4095
274 2557 274
274 2557 352
274 2557 423
274 2557 502
274 2557 581
274 2557 659
274 2557 735
274 2557 814
274 2557 901
274 2557 1006
274 2557 1141
274 2557 1316
274 2557 1521
274 2557 1735
274 2557 1937
274 2557 2115
274 2557 2272
274 2557 2417
274 2557 2557
274 2557 2695
274 2557 2835
274 2557 2978
274 2557 3128
274 2557 3286
274 2557 3457
274 2557 3644
274 2557 3851
274 2557 4081
274 2557 4095
274 2557 4095
274 2557 4095
274 2557 4095
301 2698 301
301 2698 374
301 2698 440
301 2698 515
301 2698 591
301 2698 667
301 2698 742
301 2698 820
301 2698 907
301 2698 1012
301 2698 1148
301 2698 1324
301 2698 1529
301 2698 1742
301 2698 1943
301 2698 2120
301 2698 2276
301 2698 2421
301 2698 2560
301 2698 2698
301 2698 2838
301 2698 2981
301 2698 3130
301 2698 3289
301 2698 3460
301 2698 3647
301 2698 3854
301 2698 4084
301 2698 4095
301 2698 4095
301 2698 4095
301 2698 4095
329 2841 329
329 2841 396
329 2841 458
329 2841 528
329 2841 602
329 2841 675
329 2841 749
329 2841 826
329 2841 913
329 2841 1019
329 2841 1156
329 2841 1333
329 2841 1538
329 2841 1750
329 2841 1949
329 2841 2125
329 2841 2280
329 2841 2424
329 2841 2564
329 2841 2701
329 2841 2841
329 2841 2984
329 2841 3134
329 2841 3292
329 2841 3463
329 2841 3650
329 2841 3857
329 2841 4088
329 2841 4095
329 2841 4095
329 2841 4095
329 2841 4095
356 2987 356
356 2987 418
356 2987 475
356 2987 542
356 2987 612
356 2987 683
356 2987 756
356 2987 832
356 2987 920
356 2987 1026
356 2987 1164
356 2987 1342
356 2987 1547
356 2987 1758
356 2987 1956
356 2987 2130
356 2987 2285
356 2987 2429
356 2987 2567
356 2987 2705
356 2987 2844
356 2987 2987
356 2987 3136
356 2987 3295
356 2987 3466
356 2987 3653
356 2987 3861
356 2987 4092
356 2987 4095
356 2987 4095
356 2987 4095
356 2987 4095
382 3140 382
382 3140 439
382 3140 493
382 3140 556
382 3140 623
382 3140 692
382 3140 763
382 3140 839
382 3140 927
382 3140 1034
382 3140 1174
382 3140 1352
382 3140 1556
382 3140 1767
382 3140 1963
382 3140 2136
382 3140 2290
382 3140 2433
382 3140 2571
382 3140 2708
382 3140 2847
382 3140 2991
382 3140 3140
382 3140 3299
382 3140 3470
382 3140 3657
382 3140 3864
382 3140 4095
382 3140 4095
382 3140 4095
382 3140 4095
382 3140 4095
408 3302 408
408 3302 460
408 3302 510
408 3302 570
408 3302 635
408 3302 701
408 3302 771
408 3302 847
408 3302 934
408 3302 1042
408 3302 1183
408 3302 1362
408 3302 1567
408 3302 1776
408 3302 1970
408 3302 2142
408 3302 2295
408 3302 2437
408 3302 2575
408 3302 2712
408 3302 2851
408 3302 2994
408 3302 3143
408 3302 3302
408 3302 3473
408 3302 3661
408 3302 3868
408 3302 4095
408 3302 4095
408 3302 4095
408 3302 4095
408 3302 4095
432 3477 432
432 3477 481
432 3477 528
432 3477 584
432 3477 646
432 3477 711
432 3477 779
432 3477 855
432 3477 942
432 3477 1052
432 3477 1194
432 3477 1374
432 3477 1578
432 3477 1786
432 3477 1978
432 3477 2148
432 3477 2300
432 3477 2442
432 3477 2579
432 3477 2716
432 3477 2855
432 3477 2998
432 3477 3147
432 3477 3306
432 3477 3477
432 3477 3665
432 3477 3873
432 3477 4095
432 3477 4095
432 3477 4095
432 3477 4095
432 3477 4095
456 3669 456
456 3669 501
456 3669 545
456 3669 598
456 3669 657
456 3669 721
456 3669 788
456 3669 863
456 3669 951
456 3669 1061
456 3669 1205
456 3669 1386
456 3669 1589
456 3669 1796
456 3669 1986
456 3669 2155
456 3669 2305
456 3669 2446
456 3669 2584
456 3669 2720
456 3669 2859
456 3669 3002
456 3669 3151
456 3669 3310
456 3669 3481
456 3669 3669
456 3669 3877
456 3669 4095
456 3669 4095
456 3669 4095
456 3669 4095
456 3669 4095
480 3882 480
480 3882 521
480 3882 562
480 3882 612
480 3882 669
480 3882 731
480 3882 797
480 3882 872
480 3882 960
480 3882 1071
480 3882 1217
480 3882 1398
480 3882 1601
480 3882 1806
480 3882 1995
480 3882 2162
480 3882 2311
480 3882 2452
480 3882 2588
480 3882 2725
480 3882 2863
480 3882 3006
480 3882 3155
480 3882 3314
480 3882 3485
480 3882 3673
480 3882 3882
480 3882 4095
480 3882 4095
480 3882 4095
480 3882 4095
480 3882 4095
502 4095 502
502 4095 540
502 4095 579
502 4095 627
502 4095 681
502 4095 741
502 4095 806
502 4095 881
502 4095 970
502 4095 1082
502 4095 1229
502 4095 1411
502 4095 1613
502 4095 1817
502 4095 2004
502 4095 2169
502 4095 2317
502 4095 2457
502 4095 2594
502 4095 2729
502 4095 2868
502 4095 3010
502 4095 3159
502 4095 3318
502 4095 3490
502 4095 3678
502 4095 3887
502 4095 4095
502 4095 4095
502 4095 4095
502 4095 4095
502 4095 4095
524 4095 524
524 4095 560
524 4095 596
524 4095 641
