example/public/lut_v2.3dl
#Created by: Adobe Photoshop Export Color Lookup Plugin
#Description: new lut.psd
0 33 66 99 132 165 198 231 264 297 330 363 396 429 462 495 528 561 594 627 660 693 726 759 792 825 858 891 924 957 990 1023
0 0 0
0 0 310
0 0 569
0 0 822
0 0 1058
0 0 1271
0 0 1463
0 0 1638
0 0 1801
0 0 1954
0 0 2100
0 0 2240
0 0 2378
0 0 2515
0 0 2652
0 0 2788
0 0 2924
0 0 3060
0 0 3196
0 0 3331
0 0 3466
0 0 3601
0 0 3735
0 0 3868
0 0 4002
0 0 4095
0 0 4095
0 0 4095
0 0 4095
0 0 4095
0 0 4095
0 0 4095
0 310 0
0 310 310
0 310 569
0 310 822
0 310 1058
0 310 1271
0 310 1463
0 310 1638
0 310 1801
0 310 1954
0 310 2100
0 310 2240
0 310 2378
0 310 2515
0 310 2652
0 310 2788
0 310 2924
0 310 3060
0 310 3196
0 310 3331
0 310 3466
0 310 3601
0 310 3735
0 310 3868
0 310 4002
0 310 4095
0 310 4095
0 310 4095
0 310 4095
0 310 4095
0 310 4095
0 310 4095
0 569 0
0 569 310
0 569 569
0 569 822
0 569 1058
0 569 1271
0 569 1463
0 569 1638
0 569 1801
0 569 1954
0 569 2100
0 569 2240
0 569 2378
0 569 2515
0 569 2652
0 569 2788
0 569 2924
0 569 3060
0 569 3196
0 569 3331
0 569 3466
0 569 3601
0 569 3735
0 569 3868
0 569 4002
0 569 4095
0 569 4095
0 569 4095
0 569 4095
0 569 4095
0 569 4095
0 569 4095
0 822 0
0 822 310
0 822 569
0 822 822
0 822 1058
0 822 1271
0 822 1463
0 822 1638
0 822 1801
0 822 1954
0 822 2100
0 822 2240
0 822 2378
0 822 2515
0 822 2652
0 822 2788
0 822 2924
0 822 3060
0 822 3196
0 822 3331
0 822 3466
0 822 3601
0 822 3735
0 822 3868
0 822 4002
0 822 4095
0 822 4095
0 822 4095
0 822 4095
0 822 4095
0 822 4095
0 822 4095
0 1058 0
0 1058 310
0 1058 569
0 1058 822
0 1058 1058
0 1058 1271
0 1058 1463
0 1058 1638
0 1058 1801
0 1058 1954
0 1058 2100
0 1058 2240
0 1058 2378
0 1058 2515
0 1058 2652
0 1058 2788
0 1058 2924
0 1058 3060
0 1058 3196
0 1058 3331
0 1058 3466
0 1058 3601
0 1058 3735
0 1058 3868
0 1058 4002
0 1058 4095
0 1058 4095
0 1058 4095
0 1058 4095
0 1058 4095
0 1058 4095
0 1058 4095
0 1271 0
0 1271 310
0 1271 569
0 1271 822
0 1271 1058
0 1271 1271
0 1271 1463
0 1271 1638
0 1271 1801
0 1271 1954
0 1271 2100
0 1271 2240
0 1271 2378
0 1271 2515
0 1271 2652
0 1271 2788
0 1271 2924
0 1271 3060
0 1271 3196
0 1271 3331
0 1271 3466
0 1271 3601
0 1271 3735
0 1271 3868
0 1271 4002
0 1271 4095
0 1271 4095
0 1271 4095
0 1271 4095
0 1271 4095
0 1271 4095
0 1271 4095
0 1463 0
0 1463 310
0 1463 569
0 1463 822
0 1463 1058
0 1463 1271
0 1463 1463
0 1463 1638
0 1463 1801
0 1463 1954
0 1463 2100
0 1463 2240
0 1463 2378
0 1463 2515
0 1463 2652
0 1463 2788
0 1463 2924
0 1463 3060
0 1463 3196
0 1463 3331
0 1463 3466
0 1463 3601
0 1463 3735
0 1463 3868
0 1463 4002
0 1463 4095
0 1463 4095
0 1463 4095
0 1463 4095
0 1463 4095
0 1463 4095
0 1463 4095
0 1638 0
0 1638 310
0 1638 569
0 1638 822
0 1638 1058
0 1638 1271
0 1638 1463
0 1638 1638
0 1638 1801
0 1638 1954
0 1638 2100
0 1638 2240
0 1638 2378
0 1638 2515
0 1638 2652
0 1638 2788
0 1638 2924
0 1638 3060
0 1638 3196
0 1638 3331
0 1638 3466
0 1638 3601
0 1638 3735
0 1638 3868
0 1638 4002
0 1638 4095
0 1638 4095
0 1638 4095
0 1638 4095
0 1638 4095
0 1638 4095
0 1638 4095
0 1801 0
0 1801 310
0 1801 569
0 1801 822
0 1801 1058
0 1801 1271
0 1801 1463
0 1801 1638
0 1801 1801
0 1801 1954
0 1801 2100
0 1801 2240
0 1801 2378
0 1801 2515
0 1801 2652
0 1801 2788
0 1801 2924
0 1801 3060
0 1801 3196
0 1801 3331
0 1801 3466
0 1801 3601
0 1801 3735
0 1801 3868
0 1801 4002
0 1801 4095
0 1801 4095
0 1801 4095
0 1801 4095
0 1801 4095
0 1801 4095
0 1801 4095
0 1954 0
0 1954 310
0 1954 569
0 1954 822
0 1954 1058
0 1954 1271
0 1954 1463
0 1954 1638
0 1954 1801
0 1954 1954
0 1954 2100
0 1954 2240
0 1954 2378
0 1954 2515
0 1954 2652
0 1954 2788
0 1954 2924
0 1954 3060
0 1954 3196
0 1954 3331
0 1954 3466
0 1954 3601
0 1954 3735
0 1954 3868
0 1954 4002
0 1954 4095
0 1954 4095
0 1954 4095
0 1954 4095
0 1954 4095
0 1954 4095
0 1954 4095
0 2100 0
0 2100 310
0 2100 569
0 2100 822
0 2100 1058
0 2100 1271
0 2100 1463
0 2100 1638
0 2100 1801
0 2100 1954
0 2100 2100
0 2100 2240
0 2100 2378
0 2100 2515
0 2100 2652
0 2100 2788
0 2100 2924
0 2100 3060
0 2100 3196
0 2100 3331
0 2100 3466
0 2100 3601
0 2100 3735
0 2100 3868
0 2100 4002
0 2100 4095
0 2100 4095
0 2100 4095
0 2100 4095
0 2100 4095
0 2100 4095
0 2100 4095
0 2240 0
0 2240 310
0 2240 569
0 2240 822
0 2240 1058
0 2240 1271
0 2240 1463
0 2240 1638
0 2240 1801
0 2240 1954
0 2240 2100
0 2240 2240
0 2240 2378
0 2240 2515
0 2240 2652
0 2240 2788
0 2240 2924
0 2240 3060
0 2240 3196
0 2240 3331
0 2240 3466
0 2240 3601
0 2240 3735
0 2240 3868
0 2240 4002
0 2240 4095
0 2240 4095
0 2240 4095
0 2240 4095
0 2240 4095
0 2240 4095
0 2240 4095
0 2378 0
0 2378 310
0 2378 569
0 2378 822
0 2378 1058
0 2378 1271
0 2378 1463
0 2378 1638
0 2378 1801
0 2378 1954
0 2378 2100
0 2378 2240
0 2378 2378
0 2378 2515
0 2378 2652
0 2378 2788
0 2378 2924
0 2378 3060
0 2378 3196
0 2378 3331
0 2378 3466
0 2378 3601
0 2378 3735
0 2378 3868
0 2378 4002
0 2378 4095
0 2378 4095
0 2378 4095
0 2378 4095
0 2378 4095
0 2378 4095
0 2378 4095
0 2515 0
0 2515 310
0 2515 569
0 2515 822
0 2515 1058
0 2515 1271
0 2515 1463
0 2515 1638
0 2515 1801
0 2515 1954
0 2515 2100
0 2515 2240
0 2515 2378
0 2515 2515
0 2515 2652
0 2515 2788
0 2515 2924
0 2515 3060
0 2515 3196
0 2515 3331
0 2515 3466
0 2515 3601
0 2515 3735
0 2515 3868
0 2515 4002
0 2515 4095
0 2515 4095
0 2515 4095
0 2515 4095
0 2515 4095
0 2515 4095
0 2515 4095
0 2652 0
0 2652 310
0 2652 569
0 2652 822
0 2652 1058
0 2652 1271
0 2652 1463
0 2652 1638
0 2652 1801
0 2652 1954
0 2652 2100
0 2652 2240
0 2652 2378
0 2652 2515
0 2652 2652
0 2652 2788
0 2652 2924
0 2652 3060
0 2652 3196
0 2652 3331
0 2652 3466
0 2652 3601
0 2652 3735
0 2652 3868
0 2652 4002
0 2652 4095
0 2652 4095
0 2652 4095
0 2652 4095
0 2652 4095
0 2652 4095
0 2652 4095
0 2788 0
0 2788 310
0 2788 569
0 2788 822
0 2788 1058
0 2788 1271
0 2788 1463
0 2788 1638
0 2788 1801
0 2788 1954
0 2788 2100
0 2788 2240
0 2788 2378
0 2788 2515
0 2788 2652
0 2788 2788
0 2788 2924
0 2788 3060
0 2788 3196
0 2788 3331
0 2788 3466
0 2788 3601
0 2788 3735
0 2788 3868
0 2788 4002
0 2788 4095
0 2788 4095
0 2788 4095
0 2788 4095
0 2788 4095
0 2788 4095
0 2788 4095
0 2924 0
0 2924 310
0 2924 569
0 2924 822
0 2924 1058
0 2924 1271
0 2924 1463
0 2924 1638
0 2924 1801
0 2924 1954
0 2924 2100
0 2924 2240
0 2924 2378
0 2924 2515
0 2924 2652
0 2924 2788
0 2924 2924
0 2924 3060
0 2924 3196
0 2924 3331
0 2924 3466
0 2924 3601
0 2924 3735
0 2924 3868
0 2924 4002
0 2924 4095
0 2924 4095
0 2924 4095
0 2924 4095
0 2924 4095
0 2924 4095
0 2924 4095
0 3060 0
0 3060 310
0 3060 569
0 3060 822
0 3060 1058
0 3060 1271
0 3060 1463
0 3060 1638
0 3060 1801
0 3060 1954
0 3060 2100
0 3060 2240
0 3060 2378
0 3060 2515
0 3060 2652
0 3060 2788
0 3060 2924
0 3060 3060
0 3060 3196
0 3060 3331
0 3060 3466
0 3060 3601
0 3060 3735
0 3060 3868
0 3060 4002
0 3060 4095
0 3060 4095
0 3060 4095
0 3060 4095
0 3060 4095
0 3060 4095
0 3060 4095
0 3196 0
0 3196 310
0 3196 569
0 3196 822
0 3196 1058
0 3196 1271
0 3196 1463
0 3196 1638
0 3196 1801
0 3196 1954
0 3196 2100
0 3196 2240
0 3196 2378
0 3196 2515
0 3196 2652
0 3196 2788
0 3196 2924
0 3196 3060
0 3196 3196
0 3196 3331
0 3196 3466
0 3196 3601
0 3196 3735
0 3196 3868
0 3196 4002
0 3196 4095
0 3196 4095
0 3196 4095
0 3196 4095
0 3196 4095
0 3196 4095
0 3196 4095
0 3331 0
0 3331 310
0 3331 569
0 3331 822
0 3331 1058
0 3331 1271
0 3331 1463
0 3331 1638
0 3331 1801
0 3331 1954
0 3331 2100
0 3331 2240
0 3331 2378
0 3331 2515
0 3331 2652
0 3331 2788
0 3331 2924
0 3331 3060
0 3331 3196
0 3331 3331
0 3331 3466
0 3331 3601
0 3331 3735
0 3331 3868
0 3331 4002
0 3331 4095
0 3331 4095
0 3331 4095
0 3331 4095
0 3331 4095
0 3331 4095
0 3331 4095
0 3466 0
0 3466 310
0 3466 569
0 3466 822
0 3466 1058
0 3466 1271
0 3466 1463
0 3466 1638
0 3466 1801
0 3466 1954
0 3466 2100
0 3466 2240
0 3466 2378
0 3466 2515
0 3466 2652
0 3466 2788
0 3466 2924
0 3466 3060
0 3466 3196
0 3466 3331
0 3466 3466
0 3466 3601
0 3466 3735
0 3466 3868
0 3466 4002
0 3466 4095
0 3466 4095
0 3466 4095
0 3466 4095
0 3466 4095
0 3466 4095
0 3466 4095
0 3601 0
0 3601 310
0 3601 569
0 3601 822
0 3601 1058
0 3601 1271
0 3601 1463
0 3601 1638
0 3601 1801
0 3601 1954
0 3601 2100
0 3601 2240
0 3601 2378
0 3601 2515
0 3601 2652
0 3601 2788
0 3601 2924
0 3601 3060
0 3601 3196
0 3601 3331
0 3601 3466
0 3601 3601
0 3601 3735
0 3601 3868
0 3601 4002
0 3601 4095
0 3601 4095
0 3601 4095
0 3601 4095
0 3601 4095
0 3601 4095
0 3601 4095
0 3735 0
0 3735 310
0 3735 569
0 3735 822
0 3735 1058
0 3735 1271
0 3735 1463
0 3735 1638
0 3735 1801
0 3735 1954
0 3735 2100
0 3735 2240
0 3735 2378
0 3735 2515
0 3735 2652
0 3735 2788
0 3735 2924
0 3735 3060
0 3735 3196
0 3735 3331
0 3735 3466
0 3735 3601
0 3735 3735
0 3735 3868
0 3735 4002
0 3735 4095
0 3735 4095
0 3735 4095
0 3735 4095
0 3735 4095
0 3735 4095
0 3735 4095
0 3868 0
0 3868 310
0 3868 569
0 3868 822
0 3868 1058
0 3868 1271
0 3868 1463
0 3868 1638
0 3868 1801
0 3868 1954
0 3868 2100
0 3868 2240
0 3868 2378
0 3868 2515
0 3868 2652
0 3868 2788
0 3868 2924
0 3868 3060
0 3868 3196
0 3868 3331
0 3868 3466
0 3868 3601
0 3868 3735
0 3868 3868
0 3868 4002
0 3868 4095
0 3868 4095
0 3868 4095
0 3868 4095
0 3868 4095
0 3868 4095
0 3868 4095
0 4002 0
0 4002 310
0 4002 569
0 4002 822
0 4002 1058
0 4002 1271
0 4002 1463
0 4002 1638
0 4002 1801
0 4002 1954
0 4002 2100
0 4002 2240
0 4002 2378
0 4002 2515
0 4002 2652
0 4002 2788
0 4002 2924
0 4002 3060
0 4002 3196
0 4002 3331
0 4002 3466
0 4002 3601
0 4002 3735
0 4002 3868
0 4002 4002
0 4002 4095
0 4002 4095
0 4002 4095
0 4002 4095
0 4002 4095
0 4002 4095
0 4002 4095
0 4095 0
0 4095 310
0 4095 569
0 4095 822
0 4095 1058
0 4095 1271
0 4095 1463
0 4095 1638
0 4095 1801
0 4095 1954
0 4095 2100
0 4095 2240
0 4095 2378
0 4095 2515
0 4095 2652
0 4095 2788
0 4095 2924
0 4095 3060
0 4095 3196
0 4095 3331
0 4095 3466
0 4095 3601
0 4095 3735
0 4095 3868
0 4095 4002
0 4095 4095
0 4095 4095
0 4095 4095
0 4095 4095
0 4095 4095
0 4095 4095
0 4095 4095
0 4095 0
0 4095 310
0 4095 569
0 4095 822
0 4095 1058
0 4095 1271
0 4095 1463
0 4095 1638
0 4095 1801
0 4095 1954
0 4095 2100
0 4095 2240
0 4095 2378
0 4095 2515
0 4095 2652
0 4095 2788
0 4095 2924
0 4095 3060
0 4095 3196
0 4095 3331
0 4095 3466
0 4095 3601
0 4095 3735
0 4095 3868
0 4095 4002
0 4095 4095
0 4095 4095
0 4095 4095
0 4095 4095
0 4095 4095
0 4095 4095
0 4095 4095
0 4095 0
0 4095 310
0 4095 569
0 4095 822
0 4095 1058
0 4095 1271
0 4095 1463
0 4095 1638
0 4095 1801
0 4095 1954
0 4095 2100
0 4095 2240
0 4095 2378
0 4095 2515
0 4095 2652
0 4095 2788
0 4095 2924
0 4095 3060
0 4095 3196
0 4095 3331
0 4095 3466
0 4095 3601
0 4095 3735
0 4095 3868
0 4095 4002
0 4095 4095
0 4095 4095
0 4095 4095
0 4095 4095
0 4095 4095
0 4095 4095
0 4095 4095
0 4095 0
0 4095 310
0 4095 569
0 4095 822
