example/public/room.3dl
#Created by: Adobe Photoshop Export Color Lookup Plugin
#Description: Untitled-1
0 33 66 99 132 165 198 231 264 297 330 363 396 429 462 495 528 561 594 627 660 693 726 759 792 825 858 891 924 957 990 1023
0 0 0
0 0 134
0 0 260
0 0 381
0 0 502
0 0 622
0 0 742
0 0 863
0 0 985
0 0 1110
0 0 1238
0 0 1366
0 0 1493
0 0 1618
0 0 1742
0 0 1865
0 0 1989
0 0 2114
0 0 2241
0 0 2367
0 0 2492
0 0 2616
0 0 2739
0 0 2861
0 0 2982
0 0 3108
0 0 3249
0 0 3417
0 0 3629
0 0 3909
0 0 4095
0 0 4095
0 127 0
0 127 127
0 127 255
0 127 377
0 127 499
0 127 620
0 127 740
0 127 861
0 127 984
0 127 1109
0 127 1237
0 127 1365
0 127 1492
0 127 1617
0 127 1741
0 127 1864
0 127 1988
0 127 2114
0 127 2241
0 127 2367
0 127 2492
0 127 2616
0 127 2739
0 127 2860
0 127 2981
0 127 3108
0 127 3249
0 127 3416
0 127 3629
0 127 3908
0 127 4095
0 127 4095
0 249 0
0 249 117
0 249 249
0 249 373
0 249 496
0 249 617
0 249 738
0 249 860
0 249 983
0 249 1108
0 249 1236
0 249 1364
0 249 1491
0 249 1616
0 249 1740
0 249 1864
0 249 1988
0 249 2113
0 249 2240
0 249 2366
0 249 2491
0 249 2615
0 249 2738
0 249 2860
0 249 2981
0 249 3107
0 249 3248
0 249 3416
0 249 3628
0 249 3907
0 249 4095
0 249 4095
0 367 0
0 367 103
0 367 240
0 367 367
0 367 491
0 367 614
0 367 735
0 367 857
0 367 980
0 367 1106
0 367 1234
0 367 1362
0 367 1490
0 367 1615
0 367 1739
0 367 1863
0 367 1987
0 367 2112
0 367 2239
0 367 2365
0 367 2491
0 367 2615
0 367 2738
0 367 2859
0 367 2980
0 367 3107
0 367 3247
0 367 3415
0 367 3627
0 367 3906
0 367 4095
0 367 4095
0 485 0
0 485 77
0 485 227
0 485 358
0 485 485
0 485 608
0 485 731
0 485 853
0 485 977
0 485 1103
0 485 1232
0 485 1360
0 485 1488
0 485 1613
0 485 1738
0 485 1861
0 485 1985
0 485 2111
0 485 2238
0 485 2364
0 485 2490
0 485 2614
0 485 2737
0 485 2858
0 485 2980
0 485 3106
0 485 3247
0 485 3414
0 485 3626
0 485 3905
0 485 4095
0 485 4095
0 602 0
0 602 40
0 602 210
0 602 347
0 602 476
0 602 602
0 602 726
0 602 849
0 602 973
0 602 1099
0 602 1229
0 602 1358
0 602 1485
0 602 1611
0 602 1735
0 602 1859
0 602 1984
0 602 2109
0 602 2237
0 602 2363
0 602 2488
0 602 2612
0 602 2736
0 602 2857
0 602 2979
0 602 3105
0 602 3246
0 602 3413
0 602 3624
0 602 3903
0 602 4095
0 602 4095
0 719 0
0 719 11
0 719 187
0 719 333
0 719 466
0 719 594
0 719 719
0 719 843
0 719 968
0 719 1095
0 719 1225
0 719 1354
0 719 1482
0 719 1608
0 719 1733
0 719 1857
0 719 1982
0 719 2108
0 719 2235
0 719 2361
0 719 2487
0 719 2611
0 719 2734
0 719 2856
0 719 2977
0 719 3104
0 719 3244
0 719 3411
0 719 3622
0 719 3900
0 719 4095
0 719 4095
0 836 0
0 836 0
0 836 157
0 836 315
0 836 453
0 836 584
0 836 711
0 836 836
0 836 962
0 836 1090
0 836 1220
0 836 1350
0 836 1478
0 836 1605
0 836 1730
0 836 1854
0 836 1979
0 836 2105
0 836 2233
0 836 2359
0 836 2485
0 836 2609
0 836 2733
0 836 2854
0 836 2976
0 836 3102
0 836 3243
0 836 3409
0 837 3620
0 837 3897
0 836 4095
0 836 4095
0 955 0
0 955 0
0 955 117
0 955 293
0 955 437
0 955 572
0 955 702
0 955 829
0 955 955
0 955 1084
0 955 1215
0 955 1345
0 955 1474
0 955 1601
0 955 1727
0 955 1851
0 955 1976
0 955 2102
0 955 2230
0 955 2357
0 955 2483
0 955 2607
0 955 2731
0 955 2853
0 955 2974
0 955 3101
0 955 3241
0 955 3407
0 955 3618
0 955 3894
0 955 4095
0 955 4095
0 1077 0
0 1077 0
0 1077 52
0 1077 265
0 1077 418
0 1077 558
0 1077 690
0 1077 819
0 1077 948
0 1077 1077
0 1077 1208
0 1077 1340
0 1077 1469
0 1077 1597
0 1077 1723
0 1077 1847
0 1077 1973
0 1077 2099
0 1077 2227
0 1077 2354
0 1077 2480
0 1077 2605
0 1077 2728
0 1077 2851
0 1077 2972
0 1077 3098
0 1077 3239
0 1077 3404
0 1077 3614
0 1077 3890
0 1077 4095
0 1077 4095
0 1201 0
0 1201 0
0 1201 3
0 1201 230
0 1201 396
0 1201 541
0 1201 677
0 1201 808
0 1201 938
0 1201 1068
0 1201 1201
0 1201 1333
0 1201 1464
0 1201 1592
0 1201 1718
0 1201 1843
0 1201 1969
0 1201 2095
0 1201 2224
0 1201 2351
0 1201 2477
0 1201 2602
0 1201 2726
0 1201 2848
0 1201 2970
0 1201 3096
0 1201 3236
0 1201 3402
0 1201 3611
0 1201 3885
0 1201 4095
0 1201 4095
0 1326 0
0 1326 0
0 1326 0
0 1326 183
0 1326 369
0 1326 522
0 1326 662
0 1326 796
0 1326 928
0 1326 1059
0 1326 1192
0 1326 1326
0 1326 1457
0 1326 1586
0 1326 1713
0 1326 1839
0 1326 1964
0 1326 2091
0 1326 2220
0 1326 2347
0 1326 2474
0 1326 2599
0 1326 2723
0 1326 2846
0 1326 2967
0 1326 3094
0 1326 3233
0 1326 3398
0 1326 3607
0 1326 3880
0 1326 4095
0 1326 4095
0 1450 0
0 1450 0
0 1450 0
0 1450 120
0 1450 337
0 1450 499
0 1450 645
0 1450 782
0 1450 916
0 1450 1049
0 1450 1183
0 1450 1317
0 1450 1450
0 1450 1579
0 1450 1707
0 1450 1833
0 1450 1959
0 1450 2087
0 1450 2215
0 1450 2343
0 1450 2470
0 1450 2596
0 1450 2720
0 1450 2843
0 1450 2965
0 1450 3091
0 1450 3230
0 1450 3394
0 1450 3602
0 1450 3875
0 1450 4095
0 1450 4095
0 1572 0
0 1572 0
0 1572 0
0 1572 22
0 1572 297
0 1572 473
0 1572 625
0 1572 766
0 1572 902
0 1572 1037
0 1572 1173
0 1572 1308
0 1572 1442
0 1572 1572
0 1572 1701
0 1572 1827
0 1572 1954
0 1572 2081
0 1572 2211
0 1572 2339
0 1572 2466
0 1572 2592
0 1572 2716
0 1572 2839
0 1572 2961
0 1572 3088
0 1572 3227
0 1572 3391
0 1572 3597
0 1572 3869
0 1572 4095
0 1572 4095
0 1693 0
0 1693 0
0 1693 0
0 1693 0
0 1693 248
0 1693 442
0 1693 603
0 1693 748
0 1693 887
0 1693 1024
0 1693 1161
0 1693 1298
0 1693 1433
0 1693 1564
0 1693 1693
0 1693 1821
0 1693 1948
0 1693 2076
0 1693 2205
0 1693 2334
0 1693 2462
0 1693 2588
0 1693 2713
0 1693 2836
0 1693 2958
0 1693 3084
0 1693 3223
0 1693 3386
0 1693 3592
0 1693 3862
0 1693 4095
0 1693 4095
0 1813 0
0 1813 0
0 1813 0
0 1813 0
0 1813 181
0 1813 406
0 1813 577
0 1813 728
0 1813 870
0 1813 1009
0 1813 1148
0 1813 1287
0 1813 1423
0 1813 1555
0 1813 1685
0 1813 1813
0 1813 1941
0 1813 2069
0 1813 2200
0 1813 2329
0 1813 2456
0 1813 2583
0 1813 2708
0 1813 2832
0 1813 2954
0 1813 3080
0 1813 3219
0 1813 3381
0 1813 3586
0 1813 3855
0 1813 4095
0 1813 4095
0 1934 0
0 1934 0
0 1934 0
0 1934 0
0 1934 82
0 1934 363
0 1934 547
0 1934 706
0 1934 852
0 1934 993
0 1934 1134
0 1934 1274
0 1934 1412
0 1934 1546
0 1934 1677
0 1934 1806
0 1934 1934
0 1934 2063
0 1934 2193
0 1934 2323
0 1934 2451
0 1934 2578
0 1934 2704
0 1934 2827
0 1934 2950
0 1934 3076
0 1934 3214
0 1934 3376
0 1934 3580
0 1934 3847
0 1934 4095
0 1934 4095
0 2056 0
0 2056 0
0 2056 0
0 2056 0
0 2056 0
0 2056 310
0 2056 513
0 2056 680
0 2056 831
0 2056 976
0 2056 1119
0 2056 1261
0 2056 1400
0 2056 1535
0 2056 1667
0 2056 1797
0 2056 1926
0 2056 2056
0 2056 2186
0 2056 2316
0 2056 2445
0 2056 2572
0 2056 2698
0 2056 2823
0 2056 2946
0 2056 3072
0 2056 3209
0 2056 3371
0 2056 3573
0 2056 3838
0 2056 4095
0 2056 4095
0 2179 0
0 2179 0
0 2179 0
0 2179 0
0 2179 0
0 2179 242
0 2179 474
0 2179 652
0 2179 809
0 2179 957
0 2179 1102
0 2179 1246
0 2179 1387
0 2179 1524
0 2179 1657
0 2179 1788
0 2179 1918
0 2179 2048
0 2179 2179
0 2179 2310
0 2179 2439
0 2179 2566
0 2179 2693
0 2179 2817
0 2179 2941
0 2179 3067
0 2179 3204
0 2179 3365
0 2179 3565
0 2179 3829
0 2179 4095
0 2179 4095
0 2302 0
0 2302 0
0 2302 0
0 2302 0
0 2302 0
0 2302 143
0 2302 427
0 2302 619
0 2302 783
0 2302 935
0 2302 1083
0 2302 1230
0 2302 1373
0 2302 1511
0 2302 1646
0 2302 1778
0 2302 1909
0 2302 2039
0 2302 2171
0 2302 2302
0 2302 2432
0 2302 2560
0 2302 2687
0 2302 2812
0 2302 2936
0 2302 3062
0 2302 3199
0 2302 3359
0 2302 3557
0 2302 3819
0 2302 4095
0 2302 4095
0 2424 0
0 2424 0
0 2424 0
0 2424 0
0 2424 0
0 2424 2
0 2424 372
0 2424 582
0 2424 756
0 2424 912
0 2424 1063
0 2424 1212
0 2424 1357
0 2424 1498
0 2424 1634
0 2424 1767
0 2424 1899
0 2424 2030
0 2424 2162
0 2424 2294
0 2424 2424
0 2424 2554
0 2424 2681
0 2424 2806
0 2424 2930
0 2424 3056
0 2424 3193
0 2424 3352
0 2424 3549
0 2424 3809
0 2424 4095
0 2424 4095
0 2546 0
0 2546 0
0 2546 0
0 2546 0
0 2546 0
0 2546 0
0 2546 302
0 2546 540
0 2546 724
0 2546 887
0 2546 1041
0 2546 1193
0 2546 1341
0 2546 1483
0 2546 1621
0 2546 1756
0 2546 1888
0 2546 2020
0 2546 2153
0 2546 2286
0 2546 2417
0 2546 2546
0 2546 2674
0 2546 2800
0 2546 2924
0 2546 3050
0 2546 3187
0 2546 3345
0 2546 3540
0 2546 3798
0 2546 4095
0 2546 4095
0 2667 0
0 2667 0
0 2667 0
0 2667 0
0 2667 0
0 2667 0
0 2667 206
0 2667 491
0 2667 689
0 2667 859
0 2667 1018
0 2667 1172
0 2667 1323
0 2667 1467
0 2667 1607
0 2667 1743
0 2667 1877
0 2667 2009
0 2667 2143
0 2667 2276
0 2667 2408
0 2667 2538
0 2667 2667
0 2667 2793
0 2667 2918
0 2667 3044
0 2667 3180
0 2667 3337
0 2667 3531
0 2667 3786
0 2667 4095
0 2667 4095
0 2786 0
0 2786 0
0 2786 0
0 2786 0
0 2786 0
0 2786 0
0 2786 36
0 2786 432
0 2786 650
0 2786 829
0 2786 992
0 2786 1150
0 2786 1303
0 2786 1451
0 2786 1592
0 2786 1730
0 2786 1865
0 2786 1998
0 2786 2133
0 2786 2267
0 2786 2399
0 2786 2530
0 2786 2659
0 2786 2786
0 2786 2911
0 2786 3037
0 2786 3173
0 2786 3329
0 2786 3522
0 2786 3774
0 2786 4095
0 2786 4095
0 2904 0
0 2904 0
0 2904 0
0 2904 0
0 2904 0
0 2904 0
0 2904 0
0 2904 361
0 2904 605
0 2904 795
0 2904 964
0 2904 1126
0 2904 1282
0 2904 1432
0 2904 1576
0 2904 1716
0 2904 1852
0 2904 1986
0 2904 2121
0 2904 2257
0 2904 2390
0 2904 2521
0 2904 2651
0 2904 2778
0 2904 2904
0 2904 3030
0 2904 3166
0 2904 3321
0 2904 3511
0 2904 3761
0 2904 4084
0 2904 4095
0 3023 0
0 3023 0
0 3023 0
0 3023 0
0 3023 0
0 3023 0
0 3023 0
0 3023 267
0 3023 554
0 3023 758
0 3023 934
0 3023 1099
0 3023 1260
0 3023 1413
0 3023 1559
0 3023 1700
0 3023 1838
0 3023 1973
0 3023 2109
0 3023 2246
0 3023 2380
0 3023 2512
0 3023 2642
0 3023 2770
0 3023 2896
0 3023 3023
0 3023 3158
0 3023 3312
0 3023 3501
0 3023 3748
0 3023 4068
0 3023 4095
0 3150 0
0 3150 0
0 3150 0
0 3150 0
0 3150 0
0 3150 0
0 3150 0
0 3150 119
0 3150 493
0 3150 716
0 3150 901
0 3150 1071
0 3150 1235
0 3150 1392
0 3150 1541
0 3150 1684
0 3150 1823
0 3150 1960
0 3150 2097
0 3150 2234
0 3150 2369
0 3150 2502
0 3150 2633
0 3150 2762
0 3150 2888
0 3150 3015
0 3150 3150
0 3150 3303
0 3150 3490
0 3150 3734
0 3150 4051
0 3150 4095
0 3293 0
0 3293 0
0 3293 0
0 3293 0
0 3293 0
0 3293 0
0 3293 0
0 3293 0
0 3293 420
0 3293 669
0 3293 865
0 3293 1041
0 3293 1209
0 3293 1369
0 3293 1521
0 3293 1667
0 3293 1808
0 3293 1946
0 3293 2083
0 3293 2221
0 3293 2357
0 3293 2491
0 3293 2623
0 3293 2753
0 3293 2880
0 3293 3007
0 3293 3141
0 3293 3293
0 3293 3478
0 3293 3719
0 3293 4034
0 3293 4095
0 3467 0
0 3467 0
0 3467 0
0 3467 0
