example/public/test.3dl
#Created by: Adobe Photoshop Export Color Lookup Plugin
#Description: TRAA_Arena_Demo_LUT.psd
0 33 66 99 132 165 198 231 264 297 330 363 396 429 462 495 528 561 594 627 660 693 726 759 792 825 858 891 924 957 990 1023
0 0 0
0 0 4
0 0 28
0 0 67
0 0 105
0 0 155
0 0 218
0 0 297
0 0 393
0 0 508
0 0 646
1 1 809
1 1 1003
1 1 1233
1 1 1506
2 2 1819
2 2 2147
2 2 2430
3 3 2644
3 3 2811
3 3 2948
4 4 3070
4 4 3184
5 5 3296
5 5 3408
6 6 3517
6 6 3622
6 6 3719
7 7 3809
7 7 3887
7 7 3954
8 8 4008
0 4 0
0 4 4
0 5 28
0 5 67
0 6 105
0 6 155
0 7 218
0 8 297
0 8 393
0 9 508
0 10 646
1 11 809
1 12 1003
1 13 1233
1 14 1506
2 15 1819
2 17 2147
2 18 2430
3 19 2644
3 21 2811
3 22 2948
4 24 3070
4 25 3184
5 27 3296
5 28 3408
6 29 3517
6 30 3622
6 32 3719
7 32 3809
7 33 3887
7 34 3954
8 35 4008
0 28 0
0 28 5
0 28 28
0 29 67
0 31 105
0 33 155
0 34 218
0 36 297
0 38 393
0 40 508
0 43 646
1 45 809
1 48 1003
1 51 1233
1 52 1506
2 54 1819
2 55 2147
2 56 2430
3 57 2644
3 59 2811
3 60 2948
4 61 3070
4 62 3184
5 64 3296
5 65 3408
6 66 3517
6 66 3622
6 67 3719
7 68 3809
7 69 3887
7 70 3954
8 70 4008
0 67 0
0 67 5
0 67 29
0 67 67
0 68 105
0 70 155
0 71 218
0 72 297
0 74 393
0 75 508
0 76 646
1 78 809
1 80 1003
1 81 1233
1 83 1506
2 85 1819
2 87 2147
2 89 2430
3 90 2644
3 92 2811
3 93 2948
4 95 3070
4 97 3184
5 98 3296
5 99 3408
6 100 3517
6 101 3622
6 102 3719
7 103 3809
7 104 3887
7 105 3954
8 106 4008
0 105 0
0 105 6
0 105 31
0 105 68
0 105 105
0 107 155
0 108 218
0 110 297
0 112 393
0 113 508
0 115 646
1 117 809
1 119 1003
1 121 1233
1 124 1506
2 126 1819
2 128 2147
2 130 2430
3 132 2644
3 135 2811
3 137 2948
4 139 3070
4 140 3184
5 142 3296
5 144 3408
6 145 3517
6 147 3622
6 148 3719
7 149 3809
7 150 3887
7 151 3954
8 152 4008
0 155 0
0 155 6
0 155 33
0 155 70
0 155 107
0 155 155
0 157 218
0 159 297
0 161 393
0 163 508
0 166 646
1 168 809
1 171 1003
1 173 1233
1 176 1506
2 178 1819
2 181 2147
2 184 2430
3 187 2644
3 189 2811
3 191 2948
4 194 3070
4 196 3184
5 198 3296
5 200 3408
6 202 3517
6 204 3622
6 205 3719
7 207 3809
7 208 3887
7 209 3954
8 210 4008
0 218 0
0 218 7
0 218 34
0 218 71
0 218 108
0 218 157
0 218 218
0 221 297
0 223 393
0 226 508
0 229 646
1 232 809
1 235 1003
1 238 1233
1 241 1506
2 244 1819
2 248 2147
2 251 2430
3 254 2644
3 257 2811
3 260 2948
4 263 3070
4 265 3184
5 268 3296
5 270 3408
6 272 3517
6 274 3622
6 276 3719
7 278 3809
7 279 3887
7 280 3954
8 281 4008
0 297 0
0 297 8
0 297 36
0 297 72
0 297 110
0 297 159
0 297 221
0 297 297
0 300 393
0 303 508
0 307 646
1 310 809
1 314 1003
1 317 1233
1 321 1506
2 325 1819
2 329 2147
2 332 2430
3 336 2644
3 340 2811
3 343 2948
4 346 3070
4 350 3184
5 352 3296
5 355 3408
6 358 3517
6 360 3622
6 362 3719
7 363 3809
7 365 3887
7 366 3954
8 368 4008
0 393 0
0 393 8
0 393 38
0 393 74
0 393 112
0 393 161
0 393 223
0 393 300
0 393 393
0 397 508
0 401 646
1 404 809
1 409 1003
1 413 1233
1 417 1506
2 421 1819
2 426 2147
2 430 2430
3 434 2644
3 439 2811
3 442 2948
4 446 3070
4 450 3184
5 453 3296
5 456 3408
6 459 3517
6 462 3622
6 464 3719
7 466 3809
7 469 3887
7 470 3954
8 471 4008
0 508 0
0 508 9
0 508 40
0 508 75
0 508 113
0 508 163
0 508 226
0 508 303
0 508 397
0 508 508
0 512 646
1 517 809
1 522 1003
1 527 1233
1 532 1506
2 537 1819
2 542 2147
2 547 2430
3 552 2644
3 556 2811
3 561 2948
4 566 3070
4 569 3184
5 573 3296
5 577 3408
6 580 3517
6 583 3622
6 586 3719
7 589 3809
7 591 3887
7 592 3954
8 594 4008
0 646 0
0 646 10
0 646 43
0 646 76
0 646 115
0 646 166
0 646 229
0 646 307
0 646 401
0 646 512
0 646 646
1 651 809
1 657 1003
1 662 1233
1 668 1506
2 674 1819
2 680 2147
2 685 2430
3 691 2644
3 696 2811
3 702 2948
4 706 3070
4 711 3184
5 715 3296
5 720 3408
6 723 3517
6 727 3622
6 730 3719
7 733 3809
7 736 3887
7 737 3954
8 739 4008
1 809 1
1 809 11
1 809 45
1 809 78
1 809 117
1 809 168
1 809 232
1 809 310
1 809 404
1 809 517
1 809 651
1 809 809
1 815 1003
1 822 1233
1 828 1506
2 835 1819
2 842 2147
2 848 2430
3 854 2644
3 860 2811
3 866 2948
4 872 3070
4 877 3184
5 882 3296
5 887 3408
6 892 3517
6 896 3622
6 899 3719
7 902 3809
7 906 3887
7 908 3954
8 910 4008
1 1003 1
1 1003 12
1 1003 48
1 1003 80
1 1003 119
1 1003 171
1 1003 235
1 1003 314
1 1003 409
1 1003 522
1 1003 657
1 1003 815
1 1003 1003
1 1010 1233
1 1018 1506
2 1025 1819
2 1033 2147
2 1041 2430
3 1048 2644
3 1056 2811
3 1062 2948
4 1068 3070
4 1074 3184
5 1080 3296
5 1086 3408
6 1091 3517
6 1095 3622
6 1100 3719
7 1103 3809
7 1106 3887
7 1110 3954
8 1112 4008
1 1233 1
1 1233 13
1 1233 51
1 1233 81
1 1233 121
1 1233 173
1 1233 238
1 1233 317
1 1233 413
1 1233 527
1 1233 662
1 1233 822
1 1233 1010
1 1233 1233
1 1242 1506
2 1251 1819
2 1260 2147
2 1268 2430
3 1276 2644
3 1285 2811
3 1292 2948
4 1300 3070
4 1306 3184
5 1313 3296
5 1319 3408
6 1325 3517
6 1330 3622
6 1336 3719
7 1340 3809
7 1343 3887
7 1347 3954
8 1350 4008
1 1506 1
1 1506 14
1 1506 52
1 1506 83
1 1506 124
1 1506 176
1 1506 241
1 1506 321
1 1506 417
1 1506 532
1 1506 668
1 1506 828
1 1506 1018
1 1506 1242
1 1506 1506
2 1516 1819
2 1526 2147
2 1536 2430
3 1545 2644
3 1555 2811
3 1563 2948
4 1572 3070
4 1580 3184
5 1587 3296
5 1595 3408
6 1600 3517
6 1606 3622
6 1612 3719
7 1617 3809
7 1621 3887
7 1625 3954
8 1628 4008
2 1819 2
2 1819 15
2 1819 54
2 1819 85
2 1819 126
2 1819 178
2 1819 244
2 1819 325
2 1819 421
2 1819 537
2 1819 674
2 1819 835
2 1819 1025
2 1819 1251
2 1819 1516
2 1819 1819
2 1831 2147
2 1841 2430
3 1851 2644
3 1862 2811
3 1872 2948
4 1881 3070
4 1890 3184
5 1897 3296
5 1905 3408
6 1912 3517
6 1919 3622
6 1925 3719
7 1930 3809
7 1936 3887
7 1939 3954
8 1942 4008
2 2147 2
2 2147 17
2 2147 55
2 2147 87
2 2147 128
2 2147 181
2 2147 248
2 2147 329
2 2147 426
2 2147 542
2 2147 680
2 2147 842
2 2147 1033
2 2147 1260
2 2147 1526
2 2147 1831
2 2147 2147
2 2157 2430
3 2168 2644
3 2177 2811
3 2187 2948
4 2196 3070
4 2205 3184
5 2212 3296
5 2219 3408
6 2226 3517
6 2232 3622
6 2238 3719
7 2243 3809
7 2246 3887
7 2251 3954
8 2253 4008
2 2430 2
2 2430 18
2 2430 56
2 2430 89
2 2430 130
2 2430 184
2 2430 251
2 2430 332
2 2430 430
2 2430 547
2 2430 685
2 2430 848
2 2430 1041
2 2430 1268
2 2430 1536
2 2430 1841
2 2430 2157
2 2430 2430
3 2438 2644
3 2446 2811
3 2453 2948
4 2460 3070
4 2467 3184
5 2473 3296
5 2480 3408
6 2485 3517
6 2488 3622
6 2494 3719
7 2497 3809
7 2501 3887
7 2503 3954
8 2505 4008
3 2644 3
3 2644 19
3 2644 57
3 2644 90
3 2644 132
3 2644 187
3 2644 254
3 2644 336
3 2644 434
3 2644 552
3 2644 691
3 2644 854
3 2644 1048
3 2644 1276
3 2644 1545
3 2644 1851
3 2644 2168
3 2644 2438
3 2644 2644
3 2650 2811
3 2656 2948
4 2662 3070
4 2667 3184
5 2672 3296
5 2677 3408
6 2681 3517
6 2685 3622
6 2688 3719
7 2691 3809
7 2694 3887
7 2696 3954
8 2698 4008
3 2811 3
3 2811 21
3 2811 59
3 2811 92
3 2811 135
3 2811 189
3 2811 257
3 2811 340
3 2811 439
3 2811 556
3 2811 696
3 2811 860
3 2811 1056
3 2811 1285
3 2811 1555
3 2811 1862
3 2811 2177
3 2811 2446
3 2811 2650
3 2811 2811
3 2816 2948
4 2821 3070
4 2825 3184
5 2829 3296
5 2833 3408
6 2836 3517
6 2839 3622
6 2842 3719
7 2845 3809
7 2848 3887
7 2850 3954
8 2852 4008
3 2948 3
3 2948 22
3 2948 60
3 2948 93
3 2948 137
3 2948 191
3 2948 260
3 2948 343
3 2948 442
3 2948 561
3 2948 702
3 2948 866
3 2948 1062
3 2948 1292
3 2948 1563
3 2948 1872
3 2948 2187
3 2948 2453
3 2948 2656
3 2948 2816
3 2948 2948
4 2953 3070
4 2956 3184
5 2960 3296
5 2964 3408
6 2967 3517
6 2970 3622
6 2973 3719
7 2975 3809
7 2977 3887
7 2979 3954
8 2980 4008
4 3070 4
4 3070 24
4 3070 61
4 3070 95
4 3070 139
4 3070 194
4 3070 263
4 3070 346
4 3070 446
4 3070 566
4 3070 706
4 3070 872
4 3070 1068
4 3070 1300
4 3070 1572
4 3070 1881
4 3070 2196
4 3070 2460
4 3070 2662
4 3070 2821
4 3070 2953
4 3070 3070
4 3073 3184
5 3077 3296
5 3080 3408
6 3084 3517
6 3086 3622
6 3089 3719
7 3092 3809
7 3093 3887
7 3095 3954
8 3096 4008
4 3184 4
4 3184 25
4 3184 62
4 3184 97
4 3184 140
4 3184 196
4 3184 265
4 3184 350
4 3184 450
4 3184 569
4 3184 711
4 3184 877
4 3184 1074
4 3184 1306
4 3184 1580
4 3184 1890
4 3184 2205
4 3184 2467
4 3184 2667
4 3184 2825
4 3184 2956
4 3184 3073
4 3184 3184
5 3187 3296
5 3191 3408
6 3194 3517
6 3197 3622
6 3200 3719
7 3202 3809
7 3204 3887
7 3206 3954
8 3207 4008
5 3296 5
5 3296 27
5 3296 64
5 3296 98
5 3296 142
5 3296 198
5 3296 268
5 3296 352
5 3296 453
5 3296 573
5 3296 715
5 3296 882
5 3296 1080
5 3296 1313
5 3296 1587
5 3296 1897
5 3296 2212
5 3296 2473
5 3296 2672
5 3296 2829
5 3296 2960
5 3296 3077
5 3296 3187
5 3296 3296
5 3299 3408
6 3303 3517
6 3306 3622
6 3309 3719
7 3312 3809
7 3313 3887
7 3315 3954
8 3318 4008
5 3408 5
5 3408 28
5 3408 65
5 3408 99
5 3408 144
5 3408 200
5 3408 270
5 3408 355
5 3408 456
5 3408 577
5 3408 720
5 3408 887
5 3408 1086
5 3408 1319
5 3408 1595
5 3408 1905
5 3408 2219
5 3408 2480
5 3408 2677
5 3408 2833
5 3408 2964
5 3408 3080
5 3408 3191
5 3408 3299
5 3408 3408
6 3411 3517
6 3414 3622
6 3418 3719
7 3420 3809
7 3423 3887
7 3425 3954
8 3427 4008
6 3517 6
6 3517 29
6 3517 66
6 3517 100
6 3517 145
6 3517 202
6 3517 272
6 3517 358
6 3517 459
6 3517 580
6 3517 723
6 3517 892
6 3517 1091
6 3517 1325
6 3517 1600
6 3517 1912
6 3517 2226
6 3517 2485
6 3517 2681
6 3517 2836
6 3517 2967
6 3517 3084
6 3517 3194
6 3517 3303
6 3517 3411
6 3517 3517
6 3521 3622
6 3524 3719
7 3527 3809
7 3529 3887
7 3531 3954
8 3534 4008
6 3622 6
6 3622 30
6 3622 66
6 3622 101
6 3622 147
6 3622 204
6 3622 274
6 3622 360
6 3622 462
6 3622 583
6 3622 727
6 3622 896
6 3622 1095
6 3622 1330
6 3622 1606
6 3622 1919
6 3622 2232
6 3622 2488
6 3622 2685
6 3622 2839
6 3622 2970
6 3622 3086
6 3622 3197
6 3622 3306
6 3622 3414
6 3622 3521
6 3622 3622
6 3625 3719
7 3628 3809
7 3631 3887
7 3632 3954
8 3635 4008
6 3719 6
6 3719 32
6 3719 67
6 3719 102
6 3719 148
6 3719 205
6 3719 276
6 3719 362
6 3719 464
6 3719 586
6 3719 730
6 3719 899
6 3719 1100
6 3719 1336
6 3719 1612
6 3719 1925
6 3719 2238
6 3719 2494
6 3719 2688
6 3719 2842
6 3719 2973
6 3719 3089
6 3719 3200
6 3719 3309
6 3719 3418
6 3719 3524
6 3719 3625
6 3719 3719
7 3722 3809
7 3726 3887
7 3727 3954
8 3729 4008
7 3809 7
7 3809 32
7 3809 68
7 3809 103
