example/public/weapon.3dl
#Created by: Adobe Photoshop Export Color Lookup Plugin
#Description: Untitled-1
0 33 66 99 132 165 198 231 264 297 330 363 396 429 462 495 528 561 594 627 660 693 726 759 792 825 858 891 924 957 990 1023
0 0 0
0 0 1
0 0 41
0 0 111
0 0 177
1 1 260
2 2 376
3 3 541
4 4 760
4 4 1016
5 5 1282
10 10 1547
20 20 1798
35 35 2022
53 53 2209
74 74 2361
95 95 2492
105 105 2612
118 118 2732
134 134 2864
153 153 3019
176 176 3193
202 202 3375
230 230 3563
259 259 3771
287 287 4000
313 313 4095
335 335 4095
337 337 4095
337 337 4095
337 337 4095
337 337 4095
0 1 0
0 1 1
0 2 42
0 2 113
0 3 178
1 5 261
2 7 376
4 10 542
5 11 761
4 10 1016
5 13 1282
11 21 1547
21 35 1798
36 54 2022
55 78 2209
76 97 2361
96 108 2492
106 120 2612
120 133 2732
135 147 2864
154 165 3019
177 188 3194
203 213 3375
231 241 3563
260 269 3771
288 297 4000
314 323 4095
335 344 4095
338 347 4095
338 347 4095
338 347 4095
338 347 4095
0 49 0
0 49 3
0 49 49
1 53 118
1 58 182
2 65 265
4 75 380
6 86 545
7 91 764
6 90 1018
8 95 1284
15 105 1548
27 118 1799
43 132 2023
64 144 2210
87 156 2362
101 166 2493
112 176 2612
126 187 2732
140 199 2865
158 215 3019
181 236 3194
207 259 3376
235 285 3563
264 312 3772
292 339 4000
318 364 4095
339 385 4095
342 388 4095
342 388 4095
342 388 4095
342 388 4095
2 123 2
2 123 6
2 123 61
2 123 123
2 127 186
4 131 269
6 136 383
8 142 548
9 145 766
9 144 1020
11 148 1285
19 158 1550
32 169 1800
50 181 2024
72 192 2211
95 202 2362
105 211 2493
117 220 2613
130 230 2733
145 241 2865
163 256 3020
185 276 3194
211 298 3376
239 323 3564
267 350 3772
295 376 4000
321 400 4095
342 421 4095
345 423 4095
345 423 4095
345 423 4095
345 423 4095
5 192 5
5 192 11
5 192 78
5 192 133
5 192 192
6 196 273
9 200 388
12 205 552
14 208 769
13 208 1023
16 212 1287
25 220 1551
40 230 1801
60 241 2025
85 250 2212
101 260 2363
112 268 2494
124 276 2614
136 285 2734
151 296 2866
169 310 3020
191 328 3195
216 350 3376
244 374 3564
272 400 3772
300 425 4001
325 449 4095
347 469 4095
350 472 4095
350 472 4095
350 472 4095
350 472 4095
12 280 12
12 280 23
12 280 99
12 280 146
12 280 204
12 280 280
16 285 394
20 290 559
22 293 775
21 294 1027
24 297 1291
37 305 1554
54 314 1803
79 323 2027
99 332 2213
110 340 2365
123 348 2495
134 356 2615
146 365 2735
160 375 2867
177 388 3021
199 406 3196
224 426 3377
251 449 3564
279 474 3773
307 499 4002
333 521 4095
354 540 4095
357 543 4095
357 543 4095
357 543 4095
357 543 4095
31 404 31
31 404 47
31 404 120
31 404 165
31 404 221
31 404 296
31 404 404
37 410 568
40 414 783
38 415 1033
43 418 1296
60 425 1558
83 434 1806
101 443 2029
114 451 2216
128 459 2367
138 467 2497
149 474 2616
160 482 2736
174 491 2869
191 504 3023
212 520 3197
236 540 3378
263 561 3565
291 584 3774
318 607 4003
343 628 4095
365 646 4095
367 649 4095
367 649 4095
367 649 4095
367 649 4095
75 582 75
75 582 96
75 582 149
75 582 191
75 582 244
75 582 318
75 582 426
75 582 582
80 588 796
79 590 1043
86 593 1303
99 600 1564
112 607 1812
127 615 2034
139 623 2219
151 630 2370
161 636 2500
171 643 2619
182 650 2739
195 659 2871
211 670 3025
231 684 3198
255 702 3380
281 721 3567
308 742 3776
335 762 4004
360 781 4095
381 797 4095
384 799 4095
384 799 4095
384 799 4095
384 799 4095
123 814 123
123 814 136
123 814 184
123 814 224
123 814 274
123 814 347
123 814 454
123 814 609
123 814 814
123 818 1058
127 821 1315
137 826 1573
149 833 1819
161 839 2040
173 846 2225
183 852 2375
193 857 2505
202 863 2623
212 869 2743
225 876 2874
240 885 3028
259 898 3201
282 912 3382
307 928 3569
334 946 3778
361 963 4007
385 978 4095
406 992 4095
408 993 4095
408 993 4095
408 993 4095
408 993 4095
171 1079 171
171 1079 183
171 1079 227
171 1079 264
171 1079 312
171 1079 383
171 1079 489
171 1079 642
171 1079 844
171 1079 1079
175 1082 1331
184 1086 1586
195 1091 1830
206 1096 2049
216 1101 2233
226 1106 2382
235 1110 2511
243 1114 2629
253 1119 2748
264 1124 2879
279 1132 3032
297 1141 3205
319 1153 3385
344 1165 3572
370 1179 3782
396 1192 4010
420 1205 4095
440 1215 4095
443 1217 4095
443 1217 4095
443 1217 4095
443 1217 4095
232 1352 232
232 1352 242
232 1352 283
232 1352 317
232 1352 364
232 1352 433
232 1352 536
232 1352 685
232 1352 881
232 1352 1109
232 1352 1352
241 1355 1603
250 1359 1843
260 1363 2061
270 1367 2243
279 1371 2391
287 1374 2520
295 1377 2637
304 1381 2755
315 1386 2886
329 1391 3038
347 1399 3210
368 1407 3389
392 1418 3576
417 1429 3786
442 1439 4015
466 1449 4095
486 1458 4095
488 1459 4095
488 1459 4095
488 1459 4095
488 1459 4095
306 1624 306
306 1624 315
306 1624 353
306 1624 386
306 1624 431
306 1624 498
306 1624 597
306 1624 740
306 1624 928
306 1624 1146
306 1624 1382
306 1624 1624
315 1627 1861
325 1630 2075
334 1634 2256
342 1636 2404
350 1639 2531
358 1642 2647
366 1645 2765
377 1648 2894
390 1653 3045
407 1659 3216
428 1666 3395
451 1674 3582
476 1682 3792
500 1691 4021
523 1699 4095
542 1706 4095
544 1707 4095
544 1707 4095
544 1707 4095
544 1707 4095
388 1882 388
388 1882 397
388 1882 433
388 1882 465
388 1882 508
388 1882 572
388 1882 666
388 1882 803
388 1882 980
388 1882 1188
388 1882 1416
388 1882 1652
388 1882 1882
397 1884 2093
406 1887 2272
414 1889 2418
422 1891 2544
429 1893 2659
437 1896 2775
447 1899 2904
460 1902 3054
477 1907 3224
497 1913 3401
519 1920 3588
542 1927 3799
566 1934 4029
588 1940 4095
606 1946 4095
609 1947 4095
609 1947 4095
609 1947 4095
609 1947 4095
472 2111 472
472 2111 481
472 2111 515
472 2111 545
472 2111 587
472 2111 647
472 2111 737
472 2111 866
472 2111 1034
472 2111 1233
472 2111 1452
472 2111 1681
472 2111 1906
472 2111 2111
481 2114 2288
489 2115 2433
496 2117 2557
503 2119 2672
511 2121 2787
520 2124 2914
533 2127 3063
549 2131 3232
568 2136 3408
589 2141 3595
612 2148 3807
634 2153 4036
655 2159 4095
672 2164 4095
675 2165 4095
675 2165 4095
675 2165 4095
675 2165 4095
551 2304 551
551 2304 559
551 2304 592
551 2304 620
551 2304 660
551 2304 717
551 2304 803
551 2304 925
551 2304 1084
551 2304 1274
551 2304 1486
551 2304 1709
551 2304 1929
551 2304 2132
551 2304 2304
559 2306 2447
565 2307 2570
572 2309 2684
580 2311 2798
589 2313 2924
601 2316 3072
616 2319 3239
634 2324 3415
654 2329 3602
676 2334 3814
697 2339 4044
717 2344 4095
734 2349 4095
736 2349 4095
736 2349 4095
736 2349 4095
736 2349 4095
619 2460 619
619 2460 627
619 2460 658
619 2460 685
619 2460 723
619 2460 777
619 2460 859
619 2460 975
619 2460 1127
619 2460 1310
619 2460 1516
619 2460 1734
619 2460 1950
619 2460 2150
619 2460 2320
619 2460 2460
626 2462 2583
632 2463 2695
639 2465 2808
648 2467 2933
660 2469 3080
674 2472 3246
692 2476 3421
711 2481 3608
732 2486 3821
753 2491 4051
772 2495 4095
788 2499 4095
790 2499 4095
790 2499 4095
790 2499 4095
790 2499 4095
681 2594 681
681 2594 688
681 2594 718
681 2594 744
681 2594 780
681 2594 832
681 2594 910
681 2594 1021
681 2594 1166
681 2594 1343
681 2594 1543
681 2594 1757
681 2594 1969
681 2594 2166
681 2594 2335
681 2594 2474
681 2594 2594
687 2595 2705
694 2596 2817
702 2598 2942
713 2600 3087
727 2603 3253
744 2607 3427
763 2611 3614
783 2615 3827
803 2620 4058
821 2624 4095
836 2627 4095
838 2628 4095
838 2628 4095
838 2628 4095
838 2628 4095
740 2715 740
740 2715 747
740 2715 775
740 2715 800
740 2715 834
740 2715 885
740 2715 958
740 2715 1064
740 2715 1204
740 2715 1375
740 2715 1570
740 2715 1779
740 2715 1989
740 2715 2183
740 2715 2350
740 2715 2487
740 2715 2606
740 2715 2715
746 2716 2827
754 2718 2950
765 2720 3095
778 2723 3259
794 2726 3433
813 2730 3620
831 2734 3834
851 2738 4064
868 2742 4095
883 2745 4095
885 2745 4095
885 2745 4095
885 2745 4095
885 2745 4095
802 2837 802
802 2837 808
802 2837 835
802 2837 859
802 2837 892
802 2837 939
802 2837 1009
802 2837 1110
802 2837 1244
802 2837 1409
802 2837 1599
802 2837 1804
802 2837 2009
802 2837 2201
802 2837 2366
802 2837 2502
802 2837 2619
802 2837 2728
802 2837 2837
809 2838 2959
819 2840 3103
832 2843 3267
848 2846 3439
865 2849 3626
883 2853 3841
901 2856 4071
918 2860 4095
932 2863 4095
934 2863 4095
934 2863 4095
934 2863 4095
934 2863 4095
872 2971 872
872 2971 879
872 2971 904
872 2971 927
872 2971 957
872 2971 1002
872 2971 1067
872 2971 1163
872 2971 1291
872 2971 1449
872 2971 1633
872 2971 1833
872 2971 2034
872 2971 2223
872 2971 2386
872 2971 2520
872 2971 2636
872 2971 2743
872 2971 2851
872 2971 2971
882 2972 3113
894 2975 3275
909 2977 3447
925 2980 3634
942 2984 3849
959 2987 4080
975 2990 4095
989 2993 4095
990 2993 4095
990 2993 4095
990 2993 4095
990 2993 4095
959 3126 959
959 3126 965
959 3126 988
959 3126 1009
959 3126 1037
959 3126 1078
959 3126 1139
959 3126 1228
959 3126 1349
959 3126 1500
959 3126 1677
959 3126 1870
959 3126 2066
959 3126 2250
959 3126 2411
959 3126 2543
959 3126 2657
959 3126 2762
959 3126 2868
959 3126 2987
959 3126 3126
970 3128 3286
984 3130 3457
999 3133 3644
1015 3136 3860
1031 3139 4091
1045 3141 4095
1057 3144 4095
1059 3144 4095
1059 3144 4095
1059 3144 4095
1059 3144 4095
1060 3301 1060
1060 3301 1066
1060 3301 1087
1060 3301 1105
1060 3301 1131
1060 3301 1168
1060 3301 1225
1060 3301 1307
1060 3301 1419
1060 3301 1562
1060 3301 1730
1060 3301 1916
1060 3301 2106
1060 3301 2286
1060 3301 2443
1060 3301 2571
1060 3301 2683
1060 3301 2786
1060 3301 2891
1060 3301 3007
1060 3301 3144
1060 3301 3301
1073 3303 3470
1086 3305 3658
1101 3308 3875
1116 3310 4095
1129 3312 4095
1140 3314 4095
1142 3315 4095
1142 3315 4095
1142 3315 4095
1142 3315 4095
1171 3485 1171
1171 3485 1175
1171 3485 1195
1171 3485 1211
1171 3485 1234
1171 3485 1268
1171 3485 1320
1171 3485 1395
1171 3485 1500
1171 3485 1633
1171 3485 1792
1171 3485 1969
1171 3485 2152
1171 3485 2327
1171 3485 2480
1171 3485 2606
1171 3485 2714
1171 3485 2816
1171 3485 2918
1171 3485 3032
1171 3485 3166
1171 3485 3320
1171 3485 3485
1184 3487 3674
1197 3490 3893
1210 3492 4095
1222 3494 4095
1233 3496 4095
1234 3496 4095
1234 3496 4095
1234 3496 4095
1234 3496 4095
1284 3693 1284
1284 3693 1288
1284 3693 1306
1284 3693 1321
1284 3693 1341
1284 3693 1372
1284 3693 1419
1284 3693 1488
1284 3693 1584
1284 3693 1709
1284 3693 1859
1284 3693 2028
1284 3693 2204
1284 3693 2373
1284 3693 2522
1284 3693 2644
1284 3693 2750
1284 3693 2848
1284 3693 2948
1284 3693 3059
1284 3693 3191
1284 3693 3341
1284 3693 3505
1284 3693 3693
1296 3695 3913
1308 3698 4095
1320 3700 4095
1329 3702 4095
1330 3702 4095
1330 3702 4095
1330 3702 4095
1330 3702 4095
1394 3935 1394
1394 3935 1397
1394 3935 1413
1394 3935 1427
1394 3935 1445
1394 3935 1474
1394 3935 1516
1394 3935 1580
1394 3935 1670
1394 3935 1786
1394 3935 1928
1394 3935 2089
1394 3935 2258
1394 3935 2422
1394 3935 2565
1394 3935 2683
1394 3935 2786
1394 3935 2882
1394 3935 2979
1394 3935 3088
1394 3935 3216
1394 3935 3364
1394 3935 3527
1394 3935 3716
1394 3935 3935
1404 3938 4095
1415 3940 4095
1424 3942 4095
1425 3942 4095
1425 3942 4095
1425 3942 4095
1425 3942 4095
1494 4095 1494
1494 4095 1498
1494 4095 1512
1494 4095 1524
1494 4095 1542
1494 4095 1568
1494 4095 1607
1494 4095 1666
1494 4095 1750
1494 4095 1859
1494 4095 1993
1494 4095 2147
1494 4095 2310
1494 4095 2469
1494 4095 2607
1494 4095 2722
1494 4095 2822
1494 4095 2915
1494 4095 3010
1494 4095 3116
1494 4095 3241
1494 4095 3386
1494 4095 3548
1494 4095 3739
1494 4095 3960
1494 4095 4095
1504 4095 4095
1512 4095 4095
1513 4095 4095
1513 4095 4095
1513 4095 4095
1513 4095 4095
1581 4095 1581
1581 4095 1584
1581 4095 1597
1581 4095 1609
1581 4095 1625
1581 4095 1649
1581 4095 1686
1581 4095 1742
1581 4095 1820
1581 4095 1924
1581 4095 2052
1581 4095 2200
1581 4095 2358
1581 4095 2511
1581 4095 2646
1581 4095 2757
1581 4095 2855
1581 4095 2946
1581 4095 3038
1581 4095 3142
1581 4095 3265
1581 4095 3407
1581 4095 3569
1581 4095 3761
1581 4095 3983
1581 4095 4095
1581 4095 4095
1588 4095 4095
1589 4095 4095
1589 4095 4095
1589 4095 4095
1589 4095 4095
1650 4095 1650
1650 4095 1653
1650 4095 1666
1650 4095 1677
1650 4095 1692
1650 4095 1715
1650 4095 1750
1650 4095 1803
1650 4095 1878
1650 4095 1977
1650 4095 2100
1650 4095 2244
1650 4095 2397
1650 4095 2547
1650 4095 2678
1650 4095 2787
1650 4095 2882
1650 4095 2971
1650 4095 3062
1650 4095 3164
1650 4095 3284
1650 4095 3425
1650 4095 3586
1650 4095 3780
1650 4095 4003
1650 4095 4095
1650 4095 4095
1650 4095 4095
1651 4095 4095
1651 4095 4095
1651 4095 4095
1651 4095 4095
1659 4095 1659
1659 4095 1662
1659 4095 1675
1659 4095 1686
